X:266
T:The French Ambassador
C:Henry Playford, 1701
M:4/4
L:1/4
S:Colin Hume's website,  colinhume.com  - chords can also be printed below the stave.
Q:1/2=112
N:Playford's version is in B flat and has slight differences from the Maggot Pie version.
%%MIDI ratio 3 1
K:G
P:A
|:d | "G"BG "D7"DF | "G"G3d | "C"ed "Am"e/f/g | "D"f3e |\
"Bm"dB cd | "Am"ecAe | "Dm"=fe/d/ "A7"^c/d/e/c/ | "D"d3 :|
P:B
|: d | "C"e>d ef | "G"gB BB | "Em"e>f gf/e/ | "B7"^d3d |\
"Em"eB BA/B/ | "Am"cA AG/A/ | "Em"BA/G/ "B7"F>E | "Em"E3G |
"D"F>G F/G/F/G/ | "/"AD DD | "G"G>AB A/G/ | "D"d3e/f/ |\
"G"gB "Am"eA | "G"dG "D"Fd | "Em"BA/G/ "D7"DF | "G"G3 :|

